public/images/case-studies/speakinc/feature2.svg

<svg width="64" height="64" viewBox="0 0 64 64" fill="none" xmlns="http://www.w3.org/2000/svg">
<g clip-path="url(#clip0)">
<path d="M40 48C31.176 48 24 40.824 24 32C24 23.176 31.176 16 40 16C48.824 16 56 23.176 56 32C56 40.824 48.824 48 40 48ZM40 18.6667C32.648 18.6667 26.6667 24.648 26.6667 32C26.6667 39.352 32.648 45.3333 40 45.3333C47.352 45.3333 53.3333 39.352 53.3333 32C53.3333 24.648 47.352 18.6667 40 18.6667Z" fill="#FF6B00"/>
<path d="M62.6668 55.9999C62.3254 55.9999 61.9841 55.8692 61.7228 55.6105L49.4134 43.3012C48.8934 42.7812 48.8934 41.9359 49.4134 41.4159C49.9334 40.8959 50.7788 40.8959 51.2988 41.4159L63.6081 53.7252C64.1281 54.2452 64.1281 55.0905 63.6081 55.6105C63.3494 55.8692 63.0081 55.9999 62.6668 55.9999Z" fill="#FF6B00"/>
<path d="M46.6667 5.33317H1.33333C0.597333 5.33317 0 4.73584 0 3.99984C0 3.26384 0.597333 2.6665 1.33333 2.6665H46.6667C47.4027 2.6665 48 3.26384 48 3.99984C48 4.73584 47.4027 5.33317 46.6667 5.33317Z" fill="#7F8284"/>
<path d="M46.6667 61.3334H1.33333C0.597333 61.3334 0 60.7361 0 60.0001C0 59.2641 0.597333 58.6667 1.33333 58.6667H46.6667C47.4027 58.6667 48 59.2641 48 60.0001C48 60.7361 47.4027 61.3334 46.6667 61.3334Z" fill="#7F8284"/>
<path d="M22.6667 18.6667H1.33333C0.597333 18.6667 0 18.0693 0 17.3333C0 16.5973 0.597333 16 1.33333 16H22.6667C23.4027 16 24 16.5973 24 17.3333C24 18.0693 23.4027 18.6667 22.6667 18.6667Z" fill="#7F8284"/>
<path d="M22.6667 47.9999H1.33333C0.597333 47.9999 0 47.4026 0 46.6666C0 45.9306 0.597333 45.3333 1.33333 45.3333H22.6667C23.4027 45.3333 24 45.9306 24 46.6666C24 47.4026 23.4027 47.9999 22.6667 47.9999Z" fill="#7F8284"/>
<path d="M17.3333 33.3334H1.33333C0.597333 33.3334 0 32.7361 0 32.0001C0 31.2641 0.597333 30.6667 1.33333 30.6667H17.3333C18.0693 30.6667 18.6667 31.2641 18.6667 32.0001C18.6667 32.7361 18.0693 33.3334 17.3333 33.3334Z" fill="#7F8284"/>
</g>
<defs>
<clipPath id="clip0">
<rect width="64" height="64" fill="white"/>
</clipPath>
</defs>
</svg>

<svg xmlns="http://www.w3.org/2000/svg" width="64" height="64" fill="none" xmlns:v="https://vecta.io/nano"><g clip-path="url(#A)"><g fill="#ff6b00"><path d="M40 48a16.02 16.02 0 0 1-16-16 16.02 16.02 0 0 1 16-16 16.02 16.02 0 0 1 16 16 16.02 16.02 0 0 1-16 16zm0-29.333c-7.352 0-13.333 5.981-13.333 13.333S32.648 45.333 40 45.333 53.333 39.352 53.333 32 47.352 18.667 40 18.667z"/><path d="M62.667 56a1.34 1.34 0 0 1-.944-.389L49.413 43.301c-.52-.52-.52-1.365 0-1.885s1.365-.52 1.885 0l12.309 12.309c.52.52.52 1.365 0 1.885a1.33 1.33 0 0 1-.941.389z"/></g><g fill="#7f8284"><path d="M46.667 5.333H1.333C.597 5.333 0 4.736 0 4s.597-1.333 1.333-1.333h45.333C47.403 2.667 48 3.264 48 4s-.597 1.333-1.333 1.333zm0 56H1.333C.597 61.333 0 60.736 0 60s.597-1.333 1.333-1.333h45.333c.736 0 1.333.597 1.333 1.333s-.597 1.333-1.333 1.333zm-24-42.666H1.333C.597 18.667 0 18.069 0 17.333S.597 16 1.333 16h21.333c.736 0 1.333.597 1.333 1.333s-.597 1.333-1.333 1.333zm0 29.333H1.333C.597 48 0 47.403 0 46.667s.597-1.333 1.333-1.333h21.333c.736 0 1.333.597 1.333 1.333S23.403 48 22.667 48z"/><path d="M17.333 33.333h-16C.597 33.333 0 32.736 0 32s.597-1.333 1.333-1.333h16c.736 0 1.333.597 1.333 1.333s-.597 1.333-1.333 1.333z"/></g></g><defs><clipPath id="A"><path fill="#fff" d="M0 0h64v64H0z"/></clipPath></defs></svg>
